X: 31
T: The Connaughtman's Rambles
R:jig
M:6/8
K:Bm
A|:\
"D"FAA dAA|"G"BAB dAG|"D"FAA dfe|"G"dBB BAG|
"D"FAA dAA|"Bm"BAB def|"G(Em)"gfe "D"dfe|1 "Bm"dBB BAG:|2 "Bm"dBB B2 e||
|:"Bm"fbb "D"faa|fef def|"Bm"fbb "D"faa|fed "A"e2 e|
"Bm"fbb "D"faa|fef def|"G(Em)"gfe "D"dfe|1 "Bm"dBB ~B3:|2 "Bm"dBB BAG||


